ix/smart-home_linear.svg

<svg viewBox="0 0 24 24" fill="none" xmlns="http://www.w3.org/2000/svg" height="1em" width="1em">
  <path d="M11.4 21.8101H17.6C19.03 21.8101 20.4 20.65 20.64 19.24L21.97 11.28C22.13 10.3 21.63 8.99002 20.86 8.37002L13.93 2.82998C12.86 1.96998 11.13 1.96997 10.07 2.81997L3.14004 8.37002C2.36004 8.99002 1.86002 10.3 2.03002 11.28L2.31002 12.96" stroke="#292D32" stroke-width="1.5" stroke-linecap="round" stroke-linejoin="round"/>
  <path d="M2 19C3.76 19.04 4.96 20.24 5 22" stroke="#292D32" stroke-width="1.5" stroke-linecap="round" stroke-linejoin="round"/>
  <path d="M8 22C7.99 21.24 7.86 20.53 7.63 19.88C7.04 18.21 5.78 16.96 4.12 16.37C3.47 16.14 2.76 16.01 2 16" stroke="#292D32" stroke-width="1.5" stroke-linecap="round" stroke-linejoin="round"/>
  <path d="M1.9955 22H2.0045" stroke="#292D32" stroke-width="2" stroke-linecap="round" stroke-linejoin="round"/>
</svg>

<svg viewBox="0 0 24 24" fill="none" xmlns="http://www.w3.org/2000/svg" height="1em" width="1em">
  <path d="M11.4 21.81h6.2c1.43 0 2.8-1.16 3.04-2.57l1.33-7.96c.16-.98-.34-2.29-1.11-2.91l-6.93-5.54c-1.07-.86-2.8-.86-3.86-.01L3.14 8.37c-.78.62-1.28 1.93-1.11 2.91l.28 1.68M2 19c1.76.04 2.96 1.24 3 3m3 0c-.01-.76-.14-1.47-.37-2.12a5.688 5.688 0 0 0-3.51-3.51c-.65-.23-1.36-.36-2.12-.37" stroke="#292D32" stroke-width="1.5" stroke-linecap="round" stroke-linejoin="round"/>
  <path d="M1.996 22h.009" stroke="#292D32" stroke-width="2" stroke-linecap="round" stroke-linejoin="round"/>
</svg>
